public/img/events/dancing.svg

<svg width="200" height="200" viewBox="0 0 200 200" fill="none" xmlns="http://www.w3.org/2000/svg">
<path d="M106.201 57.9255C106.633 58.6306 107.413 58.9511 108.228 58.7655C109.287 58.5227 109.843 57.6253 110.003 56.6065C110.166 55.5776 110.061 54.4847 110.03 53.449C109.993 52.1165 109.918 50.7874 109.748 49.4684C109.205 45.1875 107.518 40.883 103.473 38.7881C99.9799 36.9799 95.676 37.3072 93.3306 40.7211C90.7748 44.442 91.4265 49.4279 93.0659 53.3546C95.0854 58.1887 98.4117 62.3279 100.794 66.9731C101.239 66.6324 101.684 66.2916 102.128 65.9509C98.8428 63.3062 94.8275 62.1221 90.734 61.3496C86.3691 60.5265 82.0008 59.9192 77.741 58.6171C69.3166 56.0466 61.3436 51.3845 56.1708 44.1417C53.4113 40.2758 51.4936 35.8026 50.9336 31.0764C50.8487 30.3646 49.7252 29.781 49.3519 30.6514C46.8979 36.366 47.7871 42.7283 50.4686 48.2033C53.3672 54.1203 58.3737 58.6846 63.4684 62.7327C68.6276 66.8348 74.116 70.6029 78.593 75.4809C83.2057 80.5073 85.9177 86.5322 86.7255 93.2824C87.5299 100.002 86.8307 106.796 86.3114 113.513C85.8023 120.071 85.6054 126.632 86.2401 133.19C86.868 139.657 88.2088 146.09 90.6322 152.139C93.0727 158.231 96.5924 163.723 101.025 168.577C105.584 173.567 110.865 177.837 116.16 182.027C122.171 186.784 128.196 191.527 134.214 196.273C135.707 197.451 137.201 198.631 138.694 199.809C139.383 200.352 140.612 199.653 140.028 198.786C132.462 187.61 121.682 179.072 114.008 167.994C109.864 162.009 107.114 155.428 105.733 148.293C104.26 140.693 104.155 132.907 104.131 125.192C104.107 117.254 104.236 109.242 105.825 101.436C107.257 94.4058 110.047 87.8917 113.788 81.7791C120.878 70.1913 130.487 60.3173 137.218 48.4934C144.529 35.6441 147.502 20.6019 145.523 5.96125C145.279 4.16659 144.963 2.38204 144.58 0.610995C144.434 -0.0670645 143.334 -0.245853 143.029 0.408592C135.239 17.0801 134.19 36.2175 124.863 52.2582C122.416 56.4682 119.415 60.3241 115.753 63.5592C114.935 64.2811 116.14 65.4719 116.954 64.7534C130.779 52.5449 134.088 33.5728 138.918 16.7596C140.435 11.4802 142.163 6.248 144.491 1.26207C143.976 1.1946 143.456 1.12713 142.94 1.05966C146.151 15.8083 144.122 31.5824 137.177 45.0154C130.894 57.1733 121.272 67.1418 113.825 78.5473C110.074 84.2923 106.931 90.442 105.115 97.0742C103.038 104.661 102.542 112.575 102.447 120.405C102.268 135.315 102.21 151.197 109.82 164.546C116.52 176.303 127.296 184.955 135.561 195.524C136.607 196.86 137.605 198.233 138.555 199.64C139 199.299 139.444 198.958 139.889 198.618C133.915 193.905 127.941 189.189 121.968 184.476C116.608 180.246 111.15 176.097 106.184 171.404C101.375 166.86 97.1559 161.766 94.152 155.856C91.2262 150.098 89.4408 143.82 88.4599 137.458C87.4688 131.018 87.3229 124.456 87.6928 117.959C88.0696 111.313 88.9283 104.678 88.7484 98.012C88.5753 91.6092 87.3364 85.1795 83.9151 79.6673C80.5786 74.2901 75.6909 70.107 70.7354 66.2512C65.5456 62.2132 60.1013 58.3607 55.845 53.3006C51.8364 48.5339 49.0362 42.3538 49.6472 36.032C49.7965 34.4836 50.1936 32.9419 50.808 31.5116C50.2819 31.3699 49.7524 31.2282 49.2263 31.0866C50.2344 39.5775 55.1017 47.1846 61.8018 52.4269C69.1367 58.1651 78.0058 60.9178 87.0887 62.4325C91.8813 63.232 97.0235 64.018 100.913 67.1519C101.646 67.7422 102.702 67.0203 102.247 66.1297C100.53 62.7833 98.3439 59.7067 96.4838 56.4412C94.746 53.395 93.1847 50.0351 93.3136 46.4559C93.4392 43.0184 95.3026 39.2907 99.206 39.3515C102.509 39.4054 105.333 41.7061 106.69 44.5769C107.654 46.6178 108.034 48.8983 108.204 51.1281C108.285 52.1806 108.319 53.2365 108.336 54.289C108.347 54.8287 108.374 55.3786 108.35 55.9184C108.347 55.9656 107.994 57.6489 107.651 57.0822C107.101 56.1444 105.635 56.9911 106.201 57.9255Z" fill="black"/>
<path d="M117.468 100.893C119.447 98.7204 121.49 96.4501 124.232 95.2289C125.519 94.6554 126.958 94.3619 128.366 94.5002C129.717 94.6318 130.953 95.2761 132.032 96.0621C134.249 97.678 136.017 99.9787 137.47 102.273C138.97 104.644 140.178 107.184 141.312 109.745C143.494 114.677 145.422 119.754 148.589 124.176C150.117 126.312 151.882 128.258 153.986 129.847C156.206 131.52 158.782 132.64 161.518 133.146C164.742 133.74 168.055 133.683 171.32 133.743C174.759 133.807 178.197 133.875 181.635 133.939C182.48 133.956 183.326 133.973 184.171 133.986C185.118 134.003 185.335 132.553 184.395 132.33C179.497 131.166 175.081 134.101 170.55 135.4C168.126 136.095 165.676 136.142 163.228 135.528C160.71 134.897 158.371 133.723 156.185 132.343C151.99 129.695 148.243 126.329 145.093 122.513C143.539 120.631 142.218 118.617 140.915 116.562C139.744 114.714 138.115 112.67 135.678 112.774C134.313 112.835 132.972 113.425 131.706 113.891C130.403 114.373 129.113 114.896 127.84 115.456C125.335 116.556 122.898 117.811 120.546 119.207C119.969 119.551 119.399 119.902 118.832 120.263C117.916 120.847 118.764 122.307 119.688 121.72C124.215 118.843 129.096 116.468 134.205 114.798C135.291 114.444 136.299 114.279 137.3 114.923C138.121 115.453 138.722 116.299 139.248 117.102C139.886 118.074 140.474 119.076 141.132 120.037C141.848 121.086 142.612 122.108 143.406 123.104C146.481 126.949 150.147 130.316 154.234 133.079C158.51 135.973 163.595 138.277 168.887 137.495C171.276 137.14 173.513 136.165 175.75 135.298C177.851 134.482 180.06 133.666 182.348 133.733C182.891 133.75 183.421 133.824 183.947 133.949C184.021 133.396 184.096 132.846 184.171 132.293C180.675 132.225 177.182 132.161 173.686 132.094C170.36 132.03 166.989 132.104 163.676 131.756C160.852 131.46 158.174 130.626 155.798 129.061C153.687 127.668 151.888 125.802 150.388 123.782C147.123 119.389 145.147 114.296 142.968 109.33C140.721 104.206 138.094 98.8351 133.668 95.2019C132.531 94.2675 131.265 93.4713 129.836 93.0665C128.37 92.6516 126.802 92.6988 125.332 93.0665C122.311 93.8188 119.874 95.8665 117.773 98.0626C117.261 98.5989 116.762 99.1454 116.266 99.6919C115.536 100.505 116.731 101.699 117.468 100.893Z" fill="black"/>
<path d="M86.1256 110.551C83.6648 111.813 82.0119 114.177 80.9325 116.647C79.6868 119.494 79.0861 122.598 77.6809 125.381C76.3605 127.995 74.4258 130.221 72.3044 132.225C70.2577 134.158 68.0549 135.933 65.7604 137.565C61.2054 140.804 56.2566 143.506 51.0906 145.652C45.8296 147.837 40.3514 149.487 34.7815 150.681C29.2353 151.869 23.5976 152.601 17.936 152.941C17.2402 152.982 16.5444 153.019 15.8452 153.049C15.4718 153.066 15.129 153.299 15.0272 153.67C14.9355 153.997 15.0781 154.48 15.4175 154.621C19.847 156.5 24.6532 156.976 29.4322 156.882C31.8251 156.834 34.2112 156.652 36.594 156.457C39.1362 156.247 41.6785 156.035 44.2208 155.789C53.8807 154.854 63.5983 153.35 72.5047 149.342C77.0563 147.294 81.3228 144.589 84.9445 141.158C85.7353 140.409 84.5338 139.215 83.7429 139.964C77.3754 145.996 69.0731 149.538 60.6114 151.562C55.8086 152.709 50.9141 153.404 46.0061 153.92C41.1592 154.426 36.2817 154.895 31.4144 155.124C26.3231 155.364 21.0281 155.181 16.2729 153.164C16.1303 153.687 15.9877 154.213 15.8452 154.736C21.6119 154.483 27.3651 153.842 33.0335 152.756C38.6577 151.676 44.2004 150.142 49.5429 148.08C54.8616 146.026 59.9868 143.466 64.7353 140.315C67.1215 138.733 69.4126 137.005 71.5849 135.14C73.8352 133.207 75.9668 131.115 77.6707 128.68C79.473 126.102 80.4132 123.195 81.3873 120.243C82.2528 117.625 83.305 114.916 85.4366 113.044C85.905 112.632 86.4243 112.295 86.981 112.008C87.9517 111.509 87.0964 110.052 86.1256 110.551Z" fill="black"/>
</svg>

<svg xmlns="http://www.w3.org/2000/svg" width="200" height="200" fill="none"><path fill="#000" d="M106.201 57.926c.432.705 1.212 1.025 2.027.84 1.059-.243 1.615-1.14 1.775-2.16.163-1.028.058-2.121.027-3.157-.037-1.332-.112-2.662-.282-3.98-.543-4.282-2.23-8.586-6.275-10.68-3.493-1.81-7.797-1.482-10.142 1.932-2.556 3.721-1.904 8.707-.265 12.634 2.02 4.834 5.346 8.973 7.728 13.618l1.334-1.022c-3.285-2.645-7.3-3.829-11.394-4.601-4.365-.824-8.733-1.43-12.993-2.733-8.424-2.57-16.397-7.232-21.57-14.475-2.76-3.866-4.677-8.34-5.237-13.066-.085-.711-1.209-1.295-1.582-.425-2.454 5.715-1.565 12.077 1.117 17.552 2.898 5.917 7.905 10.482 13 14.53 5.159 4.102 10.647 7.87 15.124 12.748 4.613 5.026 7.325 11.051 8.132 17.801.805 6.72.106 13.514-.414 20.231-.509 6.558-.706 13.119-.07 19.677.627 6.467 1.968 12.9 4.391 18.949 2.44 6.092 5.96 11.584 10.393 16.438 4.559 4.99 9.84 9.26 15.135 13.45 6.011 4.757 12.036 9.5 18.054 14.246l4.48 3.536c.689.543 1.918-.156 1.334-1.023-7.566-11.176-18.346-19.714-26.02-30.792-4.144-5.985-6.894-12.566-8.275-19.701-1.473-7.6-1.578-15.386-1.602-23.101-.024-7.938.105-15.95 1.694-23.756 1.432-7.03 4.222-13.544 7.963-19.657 7.09-11.588 16.699-21.462 23.43-33.286 7.311-12.849 10.284-27.891 8.305-42.532a70 70 0 0 0-.943-5.35c-.146-.678-1.246-.857-1.551-.202-7.79 16.671-8.839 35.809-18.166 51.85-2.447 4.21-5.448 8.065-9.11 11.3-.818.722.387 1.913 1.201 1.194 13.825-12.208 17.134-31.18 21.964-47.993 1.517-5.28 3.245-10.512 5.573-15.498l-1.551-.202c3.211 14.748 1.182 30.522-5.763 43.955-6.283 12.158-15.905 22.127-23.352 33.532-3.751 5.745-6.894 11.895-8.71 18.527-2.077 7.587-2.573 15.501-2.668 23.331-.179 14.91-.237 30.792 7.373 44.141 6.7 11.757 17.476 20.409 25.741 30.978a72 72 0 0 1 2.994 4.116l1.334-1.022-17.921-14.142c-5.36-4.23-10.818-8.379-15.784-13.072-4.809-4.544-9.028-9.638-12.032-15.548-2.926-5.758-4.711-12.036-5.692-18.398-.991-6.44-1.137-13.002-.767-19.499.377-6.646 1.235-13.281 1.055-19.947-.173-6.403-1.412-12.832-4.833-18.345-3.336-5.377-8.224-9.56-13.18-13.416-5.19-4.038-10.634-7.89-14.89-12.95-4.009-4.767-6.809-10.947-6.198-17.269a15.2 15.2 0 0 1 1.161-4.52l-1.582-.425c1.008 8.49 5.876 16.098 12.576 21.34 7.335 5.738 16.204 8.49 25.287 10.005 4.792.8 9.935 1.586 13.824 4.72.733.59 1.789-.132 1.334-1.022-1.717-3.347-3.903-6.423-5.763-9.689-1.738-3.046-3.3-6.406-3.17-9.985.125-3.438 1.989-7.165 5.892-7.105 3.303.054 6.127 2.355 7.484 5.226.964 2.04 1.344 4.321 1.514 6.551.081 1.053.115 2.108.132 3.161.011.54.038 1.09.014 1.63-.003.047-.356 1.73-.699 1.163-.55-.938-2.016-.09-1.45.843"/><path fill="#000" d="M117.468 100.893c1.979-2.173 4.022-4.443 6.764-5.664 1.287-.574 2.726-.867 4.134-.729 1.351.132 2.587.776 3.666 1.562 2.217 1.616 3.985 3.917 5.438 6.211 1.5 2.371 2.708 4.911 3.842 7.472 2.182 4.932 4.11 10.009 7.277 14.431 1.528 2.136 3.293 4.082 5.397 5.671a17.9 17.9 0 0 0 7.532 3.299c3.224.594 6.537.537 9.802.597 3.439.064 6.877.132 10.315.196q1.268.026 2.536.047c.947.017 1.164-1.433.224-1.656-4.898-1.164-9.314 1.771-13.845 3.07a13.9 13.9 0 0 1-7.322.128c-2.518-.631-4.857-1.805-7.043-3.185-4.195-2.648-7.942-6.014-11.092-9.83-1.554-1.882-2.875-3.896-4.178-5.951-1.171-1.848-2.8-3.892-5.237-3.788-1.365.061-2.706.651-3.972 1.117a69 69 0 0 0-3.866 1.565 67 67 0 0 0-7.294 3.751q-.864.515-1.714 1.056c-.916.584-.068 2.044.856 1.457 4.527-2.877 9.408-5.252 14.517-6.922 1.086-.354 2.094-.519 3.095.125.821.53 1.422 1.376 1.948 2.179.638.972 1.226 1.974 1.884 2.935a52 52 0 0 0 2.274 3.067 49 49 0 0 0 10.828 9.975c4.276 2.894 9.361 5.198 14.653 4.416 2.389-.355 4.626-1.33 6.863-2.197 2.101-.816 4.31-1.632 6.598-1.565a8 8 0 0 1 1.599.216l.224-1.656q-5.243-.1-10.485-.199c-3.326-.064-6.697.01-10.01-.338-2.824-.296-5.502-1.13-7.878-2.695-2.111-1.393-3.91-3.259-5.41-5.279-3.265-4.393-5.241-9.486-7.42-14.452-2.247-5.124-4.874-10.495-9.3-14.128-1.137-.934-2.403-1.73-3.832-2.135-1.466-.415-3.034-.368-4.504 0-3.021.752-5.458 2.8-7.559 4.996a88 88 0 0 0-1.507 1.629c-.73.813.465 2.007 1.202 1.201M86.126 110.551c-2.461 1.262-4.114 3.626-5.193 6.096-1.246 2.847-1.847 5.951-3.252 8.734-1.32 2.614-3.255 4.84-5.377 6.844-2.046 1.933-4.25 3.708-6.544 5.34-4.555 3.239-9.503 5.941-14.67 8.087-5.26 2.185-10.739 3.835-16.309 5.029-5.546 1.188-11.183 1.92-16.845 2.26q-1.044.062-2.09.108c-.374.017-.717.25-.819.621-.091.327.051.81.39.951 4.43 1.879 9.236 2.355 14.015 2.261 2.393-.048 4.78-.23 7.162-.425 2.542-.21 5.084-.422 7.627-.668 9.66-.935 19.377-2.439 28.284-6.447 4.551-2.048 8.818-4.753 12.44-8.184.79-.749-.411-1.943-1.202-1.194-6.368 6.032-14.67 9.574-23.132 11.598-4.802 1.147-9.697 1.842-14.605 2.358-4.847.506-9.724.975-14.592 1.204-5.09.24-10.386.057-15.141-1.96l-.428 1.572c5.767-.253 11.52-.894 17.188-1.98 5.625-1.08 11.167-2.614 16.51-4.676 5.319-2.054 10.444-4.614 15.192-7.765a69 69 0 0 0 6.85-5.175c2.25-1.933 4.382-4.025 6.086-6.46 1.802-2.578 2.742-5.485 3.716-8.437.866-2.618 1.918-5.327 4.05-7.199a7.6 7.6 0 0 1 1.544-1.036c.97-.499.115-1.956-.855-1.457"/></svg>
